tools/download-figma-icons/icons/solid/information.svg

<svg width="24" height="24" viewBox="0 0 24 24" fill="none" xmlns="http://www.w3.org/2000/svg">
<path fill-rule="evenodd" clip-rule="evenodd" d="M12.0001 5.24995C11.5373 5.24995 11.1713 5.3902 10.9028 5.67144C10.6343 5.95269 10.5001 6.31044 10.5001 6.74468C10.5001 7.18643 10.6373 7.54717 10.9118 7.82842C11.1863 8.10967 11.5493 8.24992 12.0001 8.24992C12.4508 8.24992 12.813 8.10967 13.0875 7.82842C13.362 7.54717 13.5 7.18643 13.5 6.74468C13.5 6.31044 13.3635 5.95269 13.0928 5.67144C12.8213 5.3902 12.4561 5.24995 12.0001 5.24995ZM10.8751 18.4671H13.125V9.7499H10.8751V18.4671ZM12.0001 0C18.6271 0 24 5.37295 24 11.9999C24 15.1821 22.7355 18.2346 20.4848 20.4845C18.2348 22.7353 15.1823 23.9998 12.0001 23.9998C5.37244 23.9998 0.000244138 18.6276 0.000244138 11.9999C0.000244138 5.37295 5.37244 0 12.0001 0Z" fill="black"/>
</svg>

<svg xmlns="http://www.w3.org/2000/svg" width="24" height="24" fill="none" viewBox="0 0 24 24"><path fill="currentColor" fill-rule="evenodd" d="M12 5.25q-.695 0-1.097.421-.403.423-.403 1.074 0 .662.412 1.083.411.423 1.088.422.675 0 1.088-.422.412-.42.412-1.083 0-.652-.407-1.074-.409-.42-1.093-.421m-1.125 13.217h2.25V9.75h-2.25zM12 0c6.627 0 12 5.373 12 12a12 12 0 0 1-12 12C5.372 24 0 18.628 0 12 0 5.373 5.372 0 12 0" clip-rule="evenodd"/></svg>
